X:68
T: Dengelengeleng meng Fra as krank, S. 35f
N: L0028
O: Luxemburg
S: Die Luxemburger Volkslieder lterer Zeit, Luxemburg 1904 posth.]
R: ??, Trinklied]
M: 2/4
L: 1/16
K: D
 | DEFGA2A2 | d2B2A4 |
DEFGA2A2 | d2B2A4 |
ddddd2A2 | B2B2A4 |
ddddd2A2 | B2B2A4

@@@ Tune index: 8122
